X:385
T: Leitrim Piper
S: B.Breathnach:"Ceol Rince na hEireann" IV/4 (gan ainm)
Z: B.Black
N: No repeats
L: 1/8
M: 6/8
R: jig
K: G
(3d/e/f/|gdB GAB|Aag fed|gdB cde|dgf g2 (3d/e/f/|
gdB GAB|Aag fed|gdB cde|dgf g2 ||
g/a/|bgb afd|gfe fdd|bgb afd|gfe dd/e/f|
gdB GAB|Aag fed|gdB cde|dgf g2 ||
